images/chromeball.svg

<svg fill="none" height="240" viewBox="0 0 240 240" width="240" xmlns="http://www.w3.org/2000/svg"><path d="m3.3719 95.632-.00091.0046c-1.58462 7.7334-2.37099 15.7354-2.37099 23.9984 0 30.556 10.1013 57.148 30.2586 79.486h.0002l.0071.008.003.003.0068.008h.0003c20.1269 22.106 45.2034 34.893 74.985 38.247l3.745.422 35.255-60.777-13.239 3.311c-1.962.49-3.911.814-5.849.976-2.085.174-4.276.262-6.573.262-11.602 0-22.0396-2.844-31.4448-8.489-9.5246-5.716-16.8985-13.194-22.2226-22.471zm0 0c1.58484-7.9206 3.96652-15.471 7.1519-22.6401l4.6016-10.3566 50.8027 87.9777.0009.002.0031.005zm170.2401-81.5597.008.0042c16.344 8.4751 29.984 19.938 40.852 34.3673l6.964 9.2451h-101.836c-13.824 0-25.9432 4.0317-36.5692 12.0893l-.0197.0149-.0081.0061-.0199.0147c-10.7259 7.9603-18.0906 18.0849-22.2226 30.4841l-4.0448 12.138-34.8421-60.0641 2.2674-3.0515c10.8615-14.6179 24.4963-26.2742 40.8418-34.9442l.0036-.0019c16.6725-8.93163 34.9115-13.3743 54.6136-13.3743 19.496 0 37.534 4.3403 54.012 13.0723zm-.338 136.5377c2.559-4.438 4.532-9.233 5.91-14.404l.017-.061.017-.061c1.538-5.297 2.31-10.774 2.31-16.449 0-8.129-1.466-15.536-4.335-22.29l-.034-.0789-.031-.0805c-2.759-7.0705-6.621-13.3312-11.594-18.8199l-8.741-9.6478h69.745l1.544 3.362c3.374 7.3446 5.859 14.9893 7.452 22.9252l.004.0219c1.779 7.936 2.662 16.142 2.662 24.608 0 30.551-10.099 57.055-30.264 79.21l-.003.003c-19.92 22.091-44.696 34.981-74.101 38.534l-11.464 1.385zm-89.6283 4.99c-9.9118-9.915-14.9476-22.007-14.9476-35.965s5.0358-26.0505 14.9476-35.9653c9.9118-9.9147 22.0003-14.9518 35.9543-14.9518s26.043 5.0371 35.954 14.9519c9.912 9.9147 14.948 22.0072 14.948 35.9652s-5.036 26.05-14.948 35.965c-9.911 9.915-22 14.952-35.954 14.952s-26.0425-5.037-35.9543-14.952z" fill="#212126" stroke="#212126" stroke-linejoin="round" stroke-width="2"/></svg>

<svg width="240" height="240" viewBox="0 0 240 240" fill="none" xmlns="http://www.w3.org/2000/svg">
<path d="M3.3719 95.632L3.37099 95.6366C1.78637 103.37 1 111.372 1 119.635C1 150.191 11.1013 176.783 31.2586 199.121L31.2588 199.121L31.2659 199.129L31.2689 199.132L31.2757 199.14C31.2758 199.14 31.2759 199.14 31.276 199.14C51.4029 221.246 76.4794 234.033 106.261 237.387L110.006 237.809L145.261 177.032L132.022 180.343C130.06 180.833 128.111 181.157 126.173 181.319C124.088 181.493 121.897 181.581 119.6 181.581C107.998 181.581 97.5604 178.737 88.1552 173.092C78.6306 167.376 71.2567 159.898 65.9326 150.621L3.3719 95.632ZM3.3719 95.632C4.95674 87.7114 7.33842 80.161 10.5238 72.9919L15.1254 62.6353L65.9281 150.613L65.929 150.615L65.9321 150.62L3.3719 95.632ZM173.612 14.0723L173.62 14.0765C189.964 22.5516 203.604 34.0145 214.472 48.4438L221.436 57.6889H119.6C105.776 57.6889 93.6568 61.7206 83.0308 69.7782L83.0111 69.7931L83.003 69.7992L82.9831 69.8139C72.2572 77.7742 64.8925 87.8988 60.7605 100.298L56.7157 112.436L21.8736 52.3719L24.141 49.3204C35.0025 34.7025 48.6373 23.0462 64.9828 14.3762L64.9864 14.3743C81.6589 5.44267 99.8979 1 119.6 1C139.096 1 157.134 5.3403 173.612 14.0723ZM173.274 150.61L173.274 150.61C175.833 146.172 177.806 141.377 179.184 136.206L179.201 136.145L179.218 136.084C180.756 130.787 181.528 125.31 181.528 119.635C181.528 111.506 180.062 104.099 177.193 97.345L177.159 97.2661L177.128 97.1856C174.369 90.1151 170.507 83.8544 165.534 78.3657L156.793 68.7179H226.538L228.082 72.0799C231.456 79.4245 233.941 87.0692 235.534 95.0051L235.538 95.027C237.317 102.963 238.2 111.169 238.2 119.635C238.2 150.186 228.101 176.69 207.936 198.845L207.933 198.848C188.013 220.939 163.237 233.829 133.832 237.382L122.368 238.767L173.274 150.61ZM83.6457 155.6C73.7339 145.685 68.6981 133.593 68.6981 119.635C68.6981 105.677 73.7339 93.5845 83.6457 83.6697C93.5575 73.755 105.646 68.7179 119.6 68.7179C133.554 68.7179 145.643 73.755 155.554 83.6698C165.466 93.5845 170.502 105.677 170.502 119.635C170.502 133.593 165.466 145.685 155.554 155.6C145.643 165.515 133.554 170.552 119.6 170.552C105.646 170.552 93.5575 165.515 83.6457 155.6Z" fill="#212126" stroke="#212126" stroke-width="2" stroke-linejoin="round"/>
</svg>
